icon-svg/fiat.svg

<svg xmlns="http://www.w3.org/2000/svg" viewBox="0 0 24 24"><path fill="#44739e" d="M16.552 7.399h1.58l-.045 10.755h1.935l.411-10.757H22l-.012-1.551h-5.436ZM9.46 5.846H7.174l.245 12.308H9.42Zm5.54 0h-4.477l.169 12.307h1.852l.021-5.089h2.219a46 46 0 0 1 .227 5.089h1.8c.166-6.283-.36-9.834-1.811-12.307m-2.519 5.7.022-4.18h1.117a11.8 11.8 0 0 1 1.087 4.18ZM2 5.846l.398 12.308h1.938l-.043-5.104h1.625v-1.591H4.293l.006-4.005H6.42l-.011-1.608Z"/></svg>

<?xml version="1.0" encoding="UTF-8"?>
<svg width="24px" fill="#44739e" height="24px" viewBox="0 0 24 24" version="1.1" xmlns="http://www.w3.org/2000/svg" xmlns:xlink="http://www.w3.org/1999/xlink">
            <path d="m 16.552,7.399 h 1.58 l -0.045,10.755 h 1.935 L 20.433,7.397 H 22 L 21.988,5.846 H 16.552 Z M 9.46,5.846 H 7.174 L 7.419,18.154 H 9.42 Z m 5.54,0 h -4.477 l 0.169,12.306999 h 1.852 l 0.021,-5.089 h 2.219 a 46.026,46.026 0 0 1 0.227,5.089 h 1.8 C 16.977,11.869999 16.451,8.319 15,5.846 Z M 12.481,11.545999 12.503,7.366 h 1.117 a 11.808,11.808 0 0 1 1.087,4.179999 z M 2,5.846 2.398,18.154 H 4.336 L 4.293,13.05 H 5.918 V 11.459 H 4.293 L 4.299,7.454 H 6.42 L 6.409,5.846 Z"/>

</svg>
